svg/clockface/clockfacesquaresolid/clock_05_15.svg

<?xml version="1.0" encoding="UTF-8" standalone="no"?>
<svg
   height="1000"
   width="1000"
   version="1.1"
   viewBox="0 0 1000 1000"
   id="svg7"
   sodipodi:docname="clock_05_15.svg"
   xmlns:inkscape="http://www.inkscape.org/namespaces/inkscape"
   xmlns:sodipodi="http://sodipodi.sourceforge.net/DTD/sodipodi-0.dtd"
   xmlns="http://www.w3.org/2000/svg"
   xmlns:svg="http://www.w3.org/2000/svg">
  <defs
     id="defs11" />
  <sodipodi:namedview
     id="namedview9"
     pagecolor="#ffffff"
     bordercolor="#000000"
     borderopacity="0.25"
     inkscape:showpageshadow="2"
     inkscape:pageopacity="0.0"
     inkscape:pagecheckerboard="0"
     inkscape:deskcolor="#d1d1d1" />
  <path
     id="path15"
     style="color:#000000;fill:#000000;stroke-width:60;-inkscape-stroke:none"
     d="M 129 129 L 129 159 L 129 869 L 869 869 L 869 129 L 129 129 z M 500 470 L 730 470 A 30 30 0 0 1 760 500 A 30 30 0 0 1 730 530 L 551.96094 530 L 600.98047 614.9043 A 30 30 0 0 1 590 655.88477 A 30 30 0 0 1 549.01953 644.9043 L 474.01953 515 A 30.003 30.003 0 0 1 470.16602 503.13672 A 30.003 30.003 0 0 1 500 470 z " />
</svg>

<svg xmlns="http://www.w3.org/2000/svg" width="1000" height="1000"><path d="M129 129v740h740V129H129zm371 341h230a30 30 0 0 1 30 30 30 30 0 0 1-30 30H551.96l49.02 84.904a30 30 0 0 1-10.98 40.98 30 30 0 0 1-40.98-10.98L474.02 515a30.003 30.003 0 0 1-3.854-11.863A30.003 30.003 0 0 1 500 470z" style="-inkscape-stroke:none" stroke-width="60"/></svg>
